X:5963
T:Shannon Jig, The
O:england
M:6/8
L:1/8
Q:150
R:jig
K:A
EAc EAd|EAc BAF|EAc EAd|c/2c/2c B ABA|
EAc EAd|EAc efg|aec dcB|1c/2c/2c B ABA:|2c/2c/2c B Aaf|
:ecA ~f3|efe ecd|ecA fga|AcB Acd|
e2e ~f3|efe efg|aec dcB|1c/2c/2c B Aaf:|2c/2c/2c B ABA||


